X:1
T:Da Christus Geboren, 77.77
T:Probably by Johann Friedrich Doles (1715-1797)
T:Da Christus Geboren, 77.77
T:Public Domain
C:Probably by Johann Friedrich Doles (1715-1797)
Z:Public Domain
%%score ( 1 2 ) ( 3 4 )
L:1/8
M:4/4
K:D
V:1 treble 
V:2 treble 
V:3 bass 
V:4 bass 
V:1
 (DE)(FG) (DC) [B,B]2 | [B,G]2 (AG) [DF]4 | [Dd]2 [Ec]2 (F^G)(AB) | [Ac]2 [^GB]2 A4 | %4
 [Ad]2 [Ac]2 [GB]2 (EF) | [GB]2 [DA]2 (G2 F2) | [EA]2 DC [DF]2 [DG]2 | [DF]2 [CE]2 D4 |] %8
V:2
 D2 D2 A2 x2 | x2 C2 x4 | x4 B2 A2 | x4 A4 | x6 =c2 | x4 G4 | x2 E2 x4 | x4 D4 |] %8
V:3
 [D,F,]2 [B,,B,]2 [F,A,]2 G,2 | [E,G,]2 [A,,E,]2 [D,F,]4 | [B,,B,]2 [C,A,]2 (D,E,)(CD) | %3
 E,2 z D [A,C]4 | [F,D]2 [=CD]2 [B,D]2 [A,C]2 | [G,D]2 [F,D]2 (E,2 D,2) | %6
 [C,E,]2 (B,,A,,) [D,A,]2 [G,,B,]2 | A,,2 z G, [D,F,]4 |] %8
V:4
 x6 G,2 | x8 | x4 D2 F,2 | C3 E,2 x3 | x8 | x4 B,4 | x2 A,2 x4 | A,3 A,,2 x3 |] %8

